svgs/sharp-light/cloud-drizzle.svg

<svg xmlns="http://www.w3.org/2000/svg" viewBox="0 0 512 512"><!--! Font Awesome Pro 6.6.0 by @fontawesome - https://fontawesome.com License - https://fontawesome.com/license (Commercial License) Copyright 2024 Fonticons, Inc. --><path d="M384 128l0 32 32 0c35.3 0 64 28.7 64 64l0 64-64 0L96 288l-64 0 0-64c0-27.8 17.8-51.6 42.7-60.4L96 156.1l0-22.6L96 112c0-44.2 35.8-80 80-80c27 0 50.9 13.4 65.5 34l17.8 25.2 25.9-16.9c10-6.5 22-10.3 34.9-10.3c35.3 0 64 28.7 64 64zM0 320l32 0 64 0 320 0 64 0 32 0 0-32 0-64c0-53-43-96-96-96c0-53-43-96-96-96c-19.3 0-37.3 5.7-52.4 15.5C247.3 18.8 213.9 0 176 0C114.1 0 64 50.1 64 112l0 21.5C26.7 146.6 0 182.2 0 224l0 64 0 32zm64 56l0-16-32 0 0 16 0 40 0 16 32 0 0-16 0-40zm192 0l0-16-32 0 0 16 0 40 0 16 32 0 0-16 0-40zm192 0l0-16-32 0 0 16 0 40 0 16 32 0 0-16 0-40zM160 448l0-16-32 0 0 16 0 48 0 16 32 0 0-16 0-48zm192 0l0-16-32 0 0 16 0 48 0 16 32 0 0-16 0-48z"/></svg>

<svg xmlns="http://www.w3.org/2000/svg" viewBox="0 0 512 512"><!--! Font Awesome Pro 6.4.2 by @fontawesome - https://fontawesome.com License - https://fontawesome.com/license (Commercial License) Copyright 2023 Fonticons, Inc. --><path d="M384 128v32h32c35.3 0 64 28.7 64 64v64H416 96 32V224c0-27.8 17.8-51.6 42.7-60.4L96 156.1V133.5 112c0-44.2 35.8-80 80-80c27 0 50.9 13.4 65.5 34l17.8 25.2 25.9-16.9c10-6.5 22-10.3 34.9-10.3c35.3 0 64 28.7 64 64zM0 320H32 96 416h64 32V288 224c0-53-43-96-96-96c0-53-43-96-96-96c-19.3 0-37.3 5.7-52.4 15.5C247.3 18.8 213.9 0 176 0C114.1 0 64 50.1 64 112v21.5C26.7 146.6 0 182.2 0 224v64 32zm64 56V360H32v16 40 16H64V416 376zm192 0V360H224v16 40 16h32V416 376zm192 0V360H416v16 40 16h32V416 376zM160 448V432H128v16 48 16h32V496 448zm192 0V432H320v16 48 16h32V496 448z"/></svg>
